X:1
T:Irma Waltz
M:3/4
L:1/8
R:Waltz
S:Ford - Traditional Music in America (1940)
Z:AK/Fiddler's Companion
K:G
(dc)|B2A2G2|B,2D2 (GF)|E4 C2|A,4 (A,B,)|C2D2F2|1 A2B2c2|
e4 (dc)|d4:|2 (c2B2)A2|G2 (GFG)A|G6||:(B4d2)|d6|(E4c2)|c6|
D2(B,2D2)|(c4B2)|A2 (AG)AB|G2B,2D2|(B4d2)|d6|
(E4c2)|e6|e2(c2A2)|(F4D2)|G2 (GF)GA|G6:|
